src/styles/assets/logo.svg

<svg width="42" height="42" viewBox="0 0 42 42" fill="none" xmlns="http://www.w3.org/2000/svg">
<path fill-rule="evenodd" clip-rule="evenodd" d="M10 0C4.47715 0 0 4.47715 0 10V32C0 37.5228 4.47715 42 10 42H32C37.5228 42 42 37.5228 42 32V10C42 4.47715 37.5228 0 32 0H10ZM15.3025 32.035C16.7471 32.6783 18.5058 33 20.5785 33C22.5256 33 24.2006 32.6991 25.6033 32.0973C27.0061 31.4955 28.0843 30.655 28.838 29.5759C29.6127 28.476 30 27.1997 30 25.7471C30 24.3359 29.6336 23.1427 28.9008 22.1673C28.189 21.1712 27.1945 20.393 25.9174 19.8327C24.6402 19.2516 23.1642 18.8885 21.4893 18.7432L19.7306 18.5875C18.6628 18.5045 17.8986 18.2244 17.438 17.7471C16.9983 17.2698 16.7785 16.7095 16.7785 16.0661C16.7785 15.3191 17.0612 14.6757 17.6264 14.1362C18.1917 13.5759 19.0501 13.2957 20.2017 13.2957C21.395 13.2957 22.2953 13.607 22.9025 14.2296C23.5096 14.8521 23.8132 15.5785 23.8132 16.4086H28.838C28.838 14.9351 28.4926 13.6485 27.8017 12.5486C27.1107 11.428 26.1163 10.5564 24.8182 9.93385C23.541 9.31128 22.0022 9 20.2017 9C18.4848 9 16.9983 9.29053 15.7421 9.8716C14.486 10.4319 13.5019 11.2412 12.7901 12.2996C12.0992 13.358 11.7537 14.6135 11.7537 16.0661C11.7537 18.0999 12.4342 19.7289 13.795 20.9533C15.1559 22.1569 16.9774 22.8521 19.2595 23.0389L20.9868 23.1946C22.3895 23.3191 23.405 23.5992 24.0331 24.035C24.6612 24.4501 24.9752 25.0208 24.9752 25.7471C24.9752 26.6187 24.5983 27.3346 23.8446 27.8949C23.0909 28.4345 22.0022 28.7043 20.5785 28.7043C18.9664 28.7043 17.7939 28.3826 17.0612 27.7393C16.3493 27.0752 15.9934 26.3074 15.9934 25.4358H11C11 26.9092 11.3559 28.2166 12.0678 29.358C12.8006 30.4994 13.8788 31.3917 15.3025 32.035Z" fill="#BB5409"/>
</svg>

<svg width="42" height="42">
    <path
        fill="#E26409"
        fillRule="evenodd"
        clipRule="evenodd"
        d="M10 0A10 10 0 0 0 0 10v22a10 10 0 0 0 10 10h22a10 10 0 0 0 10-10V10A10 10 0 0 0 32 0H10Zm5.3 32.03c1.45.65 3.2.97 5.28.97 1.95 0 3.62-.3 5.02-.9a7.36 7.36 0 0 0 3.24-2.52A6.48 6.48 0 0 0 30 25.75c0-1.41-.37-2.6-1.1-3.58-.71-1-1.7-1.78-2.98-2.34a13.45 13.45 0 0 0-4.43-1.09l-1.76-.15c-1.07-.09-1.83-.37-2.3-.84a2.4 2.4 0 0 1-.65-1.68c0-.75.28-1.4.85-1.93.56-.56 1.42-.84 2.57-.84 1.2 0 2.1.3 2.7.93.61.62.91 1.35.91 2.18h5.03a7.1 7.1 0 0 0-1.04-3.86c-.69-1.12-1.68-2-2.98-2.62A10.45 10.45 0 0 0 20.2 9c-1.72 0-3.2.3-4.46.87a6.8 6.8 0 0 0-2.95 2.43 6.74 6.74 0 0 0-1.04 3.77c0 2.03.68 3.66 2.04 4.88 1.37 1.2 3.19 1.9 5.47 2.09l1.73.15c1.4.13 2.42.4 3.04.84.63.42.95 1 .95 1.72 0 .87-.38 1.58-1.14 2.14-.75.54-1.84.81-3.26.81-1.61 0-2.79-.32-3.52-.96a3.07 3.07 0 0 1-1.07-2.3H11c0 1.47.36 2.78 1.07 3.92a7.27 7.27 0 0 0 3.23 2.67Z"
    />
</svg>
